svgs/my_tp_list.svg

<svg xmlns="http://www.w3.org/2000/svg" viewBox="0 0 192 192"><path d="M88.583 175.304c-5.932-1.273-12.458-4.472-17.501-8.579l-3.467-2.825c-.961-.784-.985-.776-3.586 1.321-1.441 1.16-3.867 2.718-5.393 3.462-4.576 2.231-7.056 2.609-17.175 2.616-8.506.006-9.124-.047-9.924-.847-1.725-1.725-.763-8.388 2.033-14.086 2.88-5.87 9.223-11.171 15.882-13.275 1.485-.469 2.312-.955 2.231-1.312-.071-.311-.779-2.103-1.574-3.981-5.024-11.873-7.373-27.298-6.079-39.91l.329-3.201-13.223.124c-12.828.121-13.25.098-14.095-.747-1.787-1.787-.767-9.319 2.055-15.17 4.221-8.75 11.195-14.522 20.386-16.873 2.83-.724 4.737-.841 13.665-.841h10.376l3.152-2.057c1.733-1.132 4.626-2.706 6.429-3.498 2.55-1.12 3.213-1.588 2.981-2.105-.163-.365-.773-2.008-1.356-3.651-1.353-3.816-1.487-10.427-.297-14.726 2.113-7.643 7.429-14.389 13.694-17.38 3.249-1.551 3.559-1.615 7.864-1.615 4.3 0 4.618.065 7.841 1.604 6.319 3.017 11.59 9.7 13.717 17.391 1.189 4.299 1.056 10.91-.297 14.726-.583 1.643-1.189 3.276-1.346 3.628-.218.485.51.998 2.997 2.115 1.807.811 4.695 2.396 6.419 3.522l3.135 2.046h10.376c8.928 0 10.836.117 13.666.841 9.026 2.309 15.932 7.947 20.145 16.446 3.042 6.136 4.16 13.733 2.295 15.597-.845.845-1.266.868-14.127.747l-13.255-.124.246 1.921c1.706 13.282-.729 29.408-6.384 42.269-.805 1.83-1.463 3.416-1.463 3.524 0 .108.742.316 1.649.461 2.634.421 8.178 3.441 10.993 5.989 4.941 4.47 8.151 10.961 8.59 17.367.201 2.932.131 3.359-.687 4.177-.873.873-1.286.91-9.981.904-10.103-.007-12.758-.409-17.232-2.612-1.462-.72-3.826-2.25-5.254-3.4-1.427-1.15-2.684-2.092-2.792-2.092-.109 0-1.206.897-2.44 1.992-5.478 4.866-13.124 8.814-19.644 10.143-4.043.824-10.664.812-14.574-.026Zm14.877-6.335c3.993-1.007 10.711-4.587 14.299-7.62 1.761-1.489 3.179-3.002 3.151-3.362-.027-.361-3.197-5.291-7.043-10.956l-6.993-10.299-10.884.005-10.885.005-6.99 10.281c-3.845 5.655-7.015 10.583-7.043 10.95-.132 1.692 9.288 8.189 14.764 10.183 5.166 1.882 12.114 2.202 17.624.812Zm-51.902-4.297c3.437-.81 7.141-2.765 9.164-4.837l1.559-1.597-1.953-2.516c-1.075-1.384-2.653-3.648-3.507-5.032-1.534-2.485-1.573-2.513-3.17-2.257-4.896.783-10.466 4.317-13.175 8.36-1.521 2.27-3.39 6.633-3.39 7.912 0 .89 10.66.866 14.472-.033Zm103.336.033c0-1.279-1.869-5.642-3.39-7.912-2.709-4.043-8.279-7.577-13.175-8.36-1.598-.256-1.636-.228-3.17 2.257-.854 1.384-2.432 3.648-3.507 5.032l-1.954 2.516 1.56 1.597c1.966 2.013 5.724 4.032 8.967 4.817 1.511.366 4.917.621 8.587.642 5.069.03 6.082-.068 6.082-.589Zm-81.559-21.499c3.566-5.243 6.425-9.764 6.353-10.046-.073-.283-2.428-4.493-5.234-9.356l-5.102-8.842h-9.517c-5.235 0-9.517.12-9.517.267 0 .146.472 2.599 1.049 5.451 1.416 6.991 4 14.31 7.325 20.746 3.021 5.846 7.314 12.248 7.831 11.675.18-.2 3.245-4.653 6.812-9.895Zm55.417 6.017c5.398-7.895 9.847-18.601 11.86-28.543.578-2.852 1.05-5.305 1.05-5.451 0-.147-4.281-.267-9.513-.267h-9.513l-5.258 9.149c-2.892 5.032-5.19 9.329-5.106 9.548.44 1.158 13.36 19.652 13.618 19.493.167-.104 1.455-1.872 2.862-3.929Zm-16.726-28.129 5.205-9.022-5.318-9.226-5.319-9.226H85.399l-5.327 9.234-5.327 9.234 2.999 5.172c1.65 2.845 4.037 6.952 5.305 9.128l2.306 3.955 10.733-.114 10.733-.114ZM74.628 99.987c2.855-4.95 5.132-9.252 5.059-9.56-.072-.308-3.204-5.659-6.96-11.89l-6.83-11.329-2.684 2.641c-8.477 8.341-13.315 20.891-13.32 34.549l-.002 4.588h19.547Zm67.459 4.411c-.005-13.658-4.844-26.208-13.32-34.549l-2.685-2.641-6.829 11.329c-3.756 6.231-6.889 11.582-6.961 11.89-.072.308 2.205 4.61 5.059 9.56l5.19 8.999h19.548l-.002-4.588ZM43.279 88.466l2.635-.459.754-2.422c1.656-5.317 5.204-11.941 8.685-16.214l1.883-2.312-7.621.2c-8.128.215-9.566.515-14.549 3.04-2.94 1.49-7.229 5.571-9.073 8.634-1.577 2.617-3.391 7.424-3.409 9.031l-.011.961h9.035c4.97 0 10.221-.207 11.671-.459Zm126.128-.35c0-1.607-1.709-6.289-3.211-8.795-2.988-4.988-7.408-8.566-13.333-10.795-2.583-.972-3.655-1.103-10.465-1.275l-7.587-.191 2.739 3.633c3.069 4.068 6.131 9.871 7.574 14.354l.961 2.984 2.164.396c1.19.218 6.437.419 11.661.447 9.054.048 9.497.013 9.497-.758Zm-55.741-12.18c3.895-6.439 7.081-11.91 7.081-12.157 0-.248-1.002-.958-2.226-1.578-13.249-6.714-30.213-6.944-43.764-.593-1.938.908-3.524 1.875-3.524 2.149s3.186 5.761 7.081 12.193l7.081 11.694h21.191ZM86.813 51.583c4.484-.811 13.499-.808 18.513.005 4.706.763 4.638.803 6.025-3.579 3.682-11.63-4.773-25.868-15.361-25.868-8.568 0-16.22 9.461-16.22 20.056 0 4.232 1.847 10.036 3.186 10.01.243-.005 1.979-.286 3.857-.625Z"/></svg>

<svg
    xmlns="http://www.w3.org/2000/svg"
    viewBox="0 0 192 192"
    id="vector">
    <path
        id="path"
        d="M 88.583 175.304 C 82.651 174.031 76.125 170.832 71.082 166.725 C 69.708 165.605 68.148 164.334 67.615 163.9 C 66.654 163.116 66.63 163.124 64.029 165.221 C 62.588 166.381 60.162 167.939 58.636 168.683 C 54.06 170.914 51.58 171.292 41.461 171.299 C 32.955 171.305 32.337 171.252 31.537 170.452 C 29.812 168.727 30.774 162.064 33.57 156.366 C 36.45 150.496 42.793 145.195 49.452 143.091 C 50.937 142.622 51.764 142.136 51.683 141.779 C 51.612 141.468 50.904 139.676 50.109 137.798 C 45.085 125.925 42.736 110.5 44.03 97.888 L 44.359 94.687 L 31.136 94.811 C 18.308 94.932 17.886 94.909 17.041 94.064 C 15.254 92.277 16.274 84.745 19.096 78.894 C 23.317 70.144 30.291 64.372 39.482 62.021 C 42.312 61.297 44.219 61.18 53.147 61.18 L 63.523 61.18 L 66.675 59.123 C 68.408 57.991 71.301 56.417 73.104 55.625 C 75.654 54.505 76.317 54.037 76.085 53.52 C 75.922 53.155 75.312 51.512 74.729 49.869 C 73.376 46.053 73.242 39.442 74.432 35.143 C 76.545 27.5 81.861 20.754 88.126 17.763 C 91.375 16.212 91.685 16.148 95.99 16.148 C 100.29 16.148 100.608 16.213 103.831 17.752 C 110.15 20.769 115.421 27.452 117.548 35.143 C 118.737 39.442 118.604 46.053 117.251 49.869 C 116.668 51.512 116.062 53.145 115.905 53.497 C 115.687 53.982 116.415 54.495 118.902 55.612 C 120.709 56.423 123.597 58.008 125.321 59.134 L 128.456 61.18 L 138.832 61.18 C 147.76 61.18 149.668 61.297 152.498 62.021 C 161.524 64.33 168.43 69.968 172.643 78.467 C 175.685 84.603 176.803 92.2 174.938 94.064 C 174.093 94.909 173.672 94.932 160.811 94.811 L 147.556 94.687 L 147.802 96.608 C 149.508 109.89 147.073 126.016 141.418 138.877 C 140.613 140.707 139.955 142.293 139.955 142.401 C 139.955 142.509 140.697 142.717 141.604 142.862 C 144.238 143.283 149.782 146.303 152.597 148.851 C 157.538 153.321 160.748 159.812 161.187 166.218 C 161.388 169.15 161.318 169.577 160.5 170.395 C 159.627 171.268 159.214 171.305 150.519 171.299 C 140.416 171.292 137.761 170.89 133.287 168.687 C 131.825 167.967 129.461 166.437 128.033 165.287 C 126.606 164.137 125.349 163.195 125.241 163.195 C 125.132 163.195 124.035 164.092 122.801 165.187 C 117.323 170.053 109.677 174.001 103.157 175.33 C 99.114 176.154 92.493 176.142 88.583 175.304 Z M 103.46 168.969 C 107.453 167.962 114.171 164.382 117.759 161.349 C 119.52 159.86 120.938 158.347 120.91 157.987 C 120.883 157.626 117.713 152.696 113.867 147.031 L 106.874 136.732 L 95.99 136.737 L 85.105 136.742 L 78.115 147.023 C 74.27 152.678 71.1 157.606 71.072 157.973 C 70.94 159.665 80.36 166.162 85.836 168.156 C 91.002 170.038 97.95 170.358 103.46 168.968 Z M 51.558 164.672 C 54.995 163.862 58.699 161.907 60.722 159.835 L 62.281 158.238 L 60.328 155.722 C 59.253 154.338 57.675 152.074 56.821 150.69 C 55.287 148.205 55.248 148.177 53.651 148.433 C 48.755 149.216 43.185 152.75 40.476 156.793 C 38.955 159.063 37.086 163.426 37.086 164.705 C 37.086 165.595 47.746 165.571 51.558 164.672 Z M 154.894 164.705 C 154.894 163.426 153.025 159.063 151.504 156.793 C 148.795 152.75 143.225 149.216 138.329 148.433 C 136.731 148.177 136.693 148.205 135.159 150.69 C 134.305 152.074 132.727 154.338 131.652 155.722 L 129.698 158.238 L 131.258 159.835 C 133.224 161.848 136.982 163.867 140.225 164.652 C 141.736 165.018 145.142 165.273 148.812 165.294 C 153.881 165.324 154.894 165.226 154.894 164.705 Z M 73.335 143.206 C 76.901 137.963 79.76 133.442 79.688 133.16 C 79.615 132.877 77.26 128.667 74.454 123.804 L 69.352 114.962 L 59.835 114.962 C 54.6 114.962 50.318 115.082 50.318 115.229 C 50.318 115.375 50.79 117.828 51.367 120.68 C 52.783 127.671 55.367 134.99 58.692 141.426 C 61.713 147.272 66.006 153.674 66.523 153.101 C 66.703 152.901 69.768 148.448 73.335 143.206 Z M 128.752 149.223 C 134.15 141.328 138.599 130.622 140.612 120.68 C 141.19 117.828 141.662 115.375 141.662 115.229 C 141.662 115.082 137.381 114.962 132.149 114.962 L 122.636 114.962 L 117.378 124.111 C 114.486 129.143 112.188 133.44 112.272 133.659 C 112.712 134.817 125.632 153.311 125.89 153.152 C 126.057 153.048 127.345 151.28 128.752 149.223 Z M 112.026 121.094 L 117.231 112.072 L 111.913 102.846 L 106.594 93.62 L 85.399 93.62 L 80.072 102.854 L 74.745 112.088 L 77.744 117.26 C 79.394 120.105 81.781 124.212 83.049 126.388 L 85.355 130.343 L 96.088 130.229 L 106.821 130.115 Z M 74.628 99.987 C 77.483 95.037 79.76 90.735 79.687 90.427 C 79.615 90.119 76.483 84.768 72.727 78.537 L 65.897 67.208 L 63.213 69.849 C 54.736 78.19 49.898 90.74 49.893 104.398 L 49.891 108.986 L 69.438 108.986 Z M 142.087 104.398 C 142.082 90.74 137.243 78.19 128.767 69.849 L 126.082 67.208 L 119.253 78.537 C 115.497 84.768 112.364 90.119 112.292 90.427 C 112.22 90.735 114.497 95.037 117.351 99.987 L 122.541 108.986 L 142.089 108.986 L 142.087 104.398 Z M 43.279 88.466 L 45.914 88.007 L 46.668 85.585 C 48.324 80.268 51.872 73.644 55.353 69.371 L 57.236 67.059 L 49.615 67.259 C 41.487 67.474 40.049 67.774 35.066 70.299 C 32.126 71.789 27.837 75.87 25.993 78.933 C 24.416 81.55 22.602 86.357 22.584 87.964 L 22.573 88.925 L 31.608 88.925 C 36.578 88.925 41.829 88.718 43.279 88.466 Z M 169.407 88.116 C 169.407 86.509 167.698 81.827 166.196 79.321 C 163.208 74.333 158.788 70.755 152.863 68.526 C 150.28 67.554 149.208 67.423 142.398 67.251 L 134.811 67.06 L 137.55 70.693 C 140.619 74.761 143.681 80.564 145.124 85.047 L 146.085 88.031 L 148.249 88.427 C 149.439 88.645 154.686 88.846 159.91 88.874 C 168.964 88.922 169.407 88.887 169.407 88.116 Z M 113.666 75.936 C 117.561 69.497 120.747 64.026 120.747 63.779 C 120.747 63.531 119.745 62.821 118.521 62.201 C 105.272 55.487 88.308 55.257 74.757 61.608 C 72.819 62.516 71.233 63.483 71.233 63.757 C 71.233 64.031 74.419 69.518 78.314 75.95 L 85.395 87.644 L 106.586 87.644 Z M 86.813 51.583 C 91.297 50.772 100.312 50.775 105.326 51.588 C 110.032 52.351 109.964 52.391 111.351 48.009 C 115.033 36.379 106.578 22.141 95.99 22.141 C 87.422 22.141 79.77 31.602 79.77 42.197 C 79.77 46.429 81.617 52.233 82.956 52.207 C 83.199 52.202 84.935 51.921 86.813 51.582 Z"
        fill="#000000"
        stroke-width="12"/>
</svg>
